contributed-vectors/nubank.svg

<svg xmlns="http://www.w3.org/2000/svg" xml:space="preserve" style="fill-rule:evenodd;clip-rule:evenodd;stroke-linecap:round;stroke-linejoin:round;stroke-miterlimit:1.5" viewBox="0 0 192 192"><path d="M164.5 21.5c0-5.519-4.481-10-10-10h-133c-5.519 0-10 4.481-10 10v133c0 5.519 4.481 10 10 10h133c5.519 0 10-4.481 10-10v-133Z" style="fill:#8c72bd" transform="translate(8 8)"/><path d="M44.898 120.853V79.018s-.41-8.033 11.689-8.033l9.022.081c12.099 0 11.688 8.033 11.688 8.033v41.835l.002-.081 13.224.081s.066-39.283.066-43.488c0-10.237-8.859-18.381-20.958-18.381-11.626 0-11.531 6.015-11.531 6.015V120.934H44.897" style="fill:none;stroke:#fff;stroke-width:5.12px" transform="matrix(.87958 0 0 .87958 11.546 11.556)"/><path d="M44.898 120.853V79.018s-.41-8.033 11.689-8.033l9.022.081c12.099 0 11.688 8.033 11.688 8.033v41.835l.002-.081 13.224.081s.066-39.283.066-43.488c0-10.237-8.859-18.381-20.958-18.381-11.626 0-11.531 6.015-11.531 6.015V120.934H44.897" style="fill:none;stroke:#fff;stroke-width:5.12px" transform="matrix(-.87958 0 0 -.87958 180.205 180.363)"/></svg>

<?xml version="1.0" encoding="UTF-8" standalone="no"?>
<!DOCTYPE svg PUBLIC "-//W3C//DTD SVG 1.1//EN" "http://www.w3.org/Graphics/SVG/1.1/DTD/svg11.dtd">
<svg width="100%" height="100%" viewBox="0 0 192 192" version="1.1" xmlns="http://www.w3.org/2000/svg" xmlns:xlink="http://www.w3.org/1999/xlink" xml:space="preserve" xmlns:serif="http://www.serif.com/" style="fill-rule:evenodd;clip-rule:evenodd;stroke-linecap:round;stroke-linejoin:round;stroke-miterlimit:1.5;">
    <g id="Layer1">
        <g transform="matrix(1,0,0,1,8,8)">
            <path d="M164.5,21.5C164.5,15.981 160.019,11.5 154.5,11.5L21.5,11.5C15.981,11.5 11.5,15.981 11.5,21.5L11.5,154.5C11.5,160.019 15.981,164.5 21.5,164.5L154.5,164.5C160.019,164.5 164.5,160.019 164.5,154.5L164.5,21.5Z" style="fill:rgb(140,114,189);"/>
        </g>
        <g transform="matrix(0.879577,0,0,0.879577,11.5457,11.5558)">
            <path d="M44.898,120.853L44.898,79.018C44.898,79.018 44.488,70.985 56.587,70.985L65.609,71.066C77.708,71.066 77.297,79.099 77.297,79.099L77.297,120.934L77.299,120.853L90.523,120.934C90.523,120.934 90.589,81.651 90.589,77.446C90.589,67.209 81.73,59.065 69.631,59.065C58.005,59.065 58.1,65.08 58.1,65.08L58.1,120.853L58.1,120.934L44.897,120.934" style="fill:none;stroke:white;stroke-width:5.12px;"/>
            <g transform="matrix(-1,0,0,-1,191.751,191.919)">
                <path d="M44.898,120.853L44.898,79.018C44.898,79.018 44.488,70.985 56.587,70.985L65.609,71.066C77.708,71.066 77.297,79.099 77.297,79.099L77.297,120.934L77.299,120.853L90.523,120.934C90.523,120.934 90.589,81.651 90.589,77.446C90.589,67.209 81.73,59.065 69.631,59.065C58.005,59.065 58.1,65.08 58.1,65.08L58.1,120.853L58.1,120.934L44.897,120.934" style="fill:none;stroke:white;stroke-width:5.12px;"/>
            </g>
        </g>
    </g>
</svg>
